X:163
T:Hela'r Sgwarnog - Hunt the Hare
M:2/4
L:1/8
Q:180
C:Trad. arr. J.T.
R:Processional
N:Compressed into one octave
K:D
D>F Ad | cA BG | F>D FA | E2 E2 | D>F Ad | cA BG |1 F>
D FA | d2 d2 :||2 F>D FE | D2 D2 ||: F>G AF | GE FD |
E>F GE | A2 A/B/A/G/ | F>G AF | GE FD | E/F/G/F/ EE | D2
D2 :||
